X: 46
T:Mrs Willis
% Nottingham Music Database
S:Helen
M:4/4
L:1/8
R:Hornpipe
K:F
P:A
(3FED|"F"CAGF CAGF|"Bb"(3DEDGB "G7"d4|"C7"c_cBG AGDE|"F"(3FAG(3FED "C7"C4|
"F"CAGF CAGF|"Bb"(3DEDGB "G7"d4|"C7"c_cBG AGDE|"F"F2A2 F2:|
K:C
P:B
"G7"G2|"C"(3edcG2 (3edcG2|"Dm"(3fedA2 (3fedA2|"G7"BG^FG AGed|\
"C"(3ced(3cBA "G7"G4|
"C"(3edcG2 (3edcG2|"Dm"(3fedA2 (3fedA2|"G7"BG^FG AGed|"C"c2e2 c2:|


